flaticon/constructions/jigsaw.svg

<svg xmlns="http://www.w3.org/2000/svg" width="32" height="32" viewBox="0 0 24 24">
    <path d="M22 12.601562L18 12.601562C17.761719 12.601562 17.601562 12.761719 17.601562 13.003906 17.601562 13.242188 17.761719 13.402344 18 13.402344L22 13.402344C22.238281 13.402344 22.398438 13.242188 22.398438 13.003906 22.398438 12.761719 22.238281 12.601562 22 12.601562zM22 14.203125L18.800781 14.203125C18.558594 14.203125 18.398438 14.363281 18.398438 14.601562 18.398438 14.84375 18.558594 15.003906 18.800781 15.003906L22 15.003906C22.238281 15.003906 22.398438 14.84375 22.398438 14.601562 22.398438 14.363281 22.238281 14.203125 22 14.203125zM22 15.800781L19.601562 15.800781C19.359375 15.800781 19.199219 15.960938 19.199219 16.203125 19.199219 16.441406 19.359375 16.601562 19.601562 16.601562L22 16.601562C22.238281 16.601562 22.398438 16.441406 22.398438 16.203125 22.398438 15.960938 22.238281 15.800781 22 15.800781zM22 15.800781"/>
    <path d="M 22 1.402344 L 18.886719 1.214844 C 18.859375 1.207031 18.828125 1.203125 18.800781 1.203125 L 12 0.800781 L 2 0.203125 C 1.480469 0.164062 1 0.363281 0.601562 0.722656 C 0.199219 1.082031 0 1.601562 0 2.121094 L 0 5.402344 C 0 5.960938 0.0390625 6.523438 0.078125 7.042969 L 1.441406 17.203125 C 1.558594 18.003906 2.238281 18.601562 3.039062 18.601562 L 4.800781 18.601562 L 4.800781 19.402344 L 2.398438 19.402344 C 2.160156 19.402344 2 19.5625 2 19.800781 L 2 21.402344 C 2 21.640625 2.160156 21.800781 2.398438 21.800781 L 4.800781 21.800781 L 4.800781 23.402344 C 4.800781 23.640625 4.960938 23.800781 5.199219 23.800781 C 5.441406 23.800781 5.601562 23.640625 5.601562 23.402344 L 5.601562 21.800781 L 19.199219 21.800781 C 19.441406 21.800781 19.601562 21.640625 19.601562 21.402344 L 19.601562 19.800781 C 19.601562 19.5625 19.441406 19.402344 19.199219 19.402344 L 16.800781 19.402344 L 16.800781 18.601562 L 23.601562 18.601562 C 23.839844 18.601562 24 18.441406 24 18.203125 L 24 3.402344 C 24 2.363281 23.121094 1.484375 22 1.402344 Z M 18.398438 2.003906 C 18.359375 2.242188 18.28125 2.484375 18.078125 2.640625 C 17.839844 2.84375 17.558594 2.921875 17.28125 2.921875 L 6.601562 2.28125 C 6.046875 2.242188 5.609375 1.773438 5.601562 1.21875 L 12.503906 1.632812 Z M 5.601562 18.601562 L 8.800781 18.601562 L 8.800781 19.402344 L 5.601562 19.402344 Z M 2.800781 21.003906 L 2.800781 20.203125 L 4.800781 20.203125 L 4.800781 21.003906 Z M 18.800781 21.003906 L 5.601562 21.003906 L 5.601562 20.203125 L 18.800781 20.203125 Z M 16 19.402344 L 9.601562 19.402344 L 9.601562 18.601562 L 16 18.601562 Z M 23.199219 17.761719 L 3.078125 17.761719 C 2.679688 17.761719 2.320312 17.484375 2.28125 17.082031 L 0.921875 6.921875 C 0.839844 6.441406 0.800781 5.921875 0.800781 5.402344 L 0.800781 2.121094 C 0.800781 1.800781 0.921875 1.523438 1.160156 1.324219 C 1.359375 1.121094 1.640625 1.003906 1.921875 1.003906 C 1.960938 1.003906 1.960938 1.003906 2 1.003906 L 4.800781 1.171875 L 4.800781 1.242188 C 4.800781 2.203125 5.558594 3.042969 6.558594 3.082031 L 17.238281 3.722656 C 17.28125 3.722656 17.320312 3.722656 17.359375 3.722656 C 17.839844 3.722656 18.28125 3.523438 18.558594 3.203125 C 18.910156 2.886719 19.105469 2.480469 19.152344 2.035156 L 21.960938 2.203125 C 22.679688 2.242188 23.199219 2.761719 23.199219 3.402344 Z M 23.199219 17.761719"/>
    <path d="M4.398438 12.601562C4.160156 12.601562 4 12.761719 4 13.003906L4 16.203125C4 16.441406 4.160156 16.601562 4.398438 16.601562L7.601562 16.601562C7.839844 16.601562 8 16.441406 8 16.203125 8 14.402344 6.199219 12.601562 4.398438 12.601562zM4.800781 15.800781L4.800781 13.441406C5.878906 13.640625 6.960938 14.722656 7.160156 15.800781zM6.199219 10.203125L17.601562 10.203125C18.921875 10.203125 20 9.121094 20 7.800781 20 6.484375 18.921875 5.402344 17.640625 5.402344L10.507812 4.941406C10.472656 4.929688 10.4375 4.921875 10.398438 4.921875L6 4.640625C5.984375 4.640625 5.964844 4.644531 5.945312 4.648438L5.238281 4.601562C4.921875 4.601562 4.640625 4.722656 4.398438 4.921875 4.121094 5.121094 4 5.484375 4 5.800781L4 8.003906C4 9.203125 5 10.203125 6.199219 10.203125zM10 5.722656L10 6.203125 6.398438 6.203125 6.398438 5.484375zM4.800781 5.800781C4.800781 5.683594 4.839844 5.5625 4.921875 5.484375 5 5.441406 5.039062 5.402344 5.160156 5.402344L5.601562 5.429688 5.601562 6.601562C5.601562 6.84375 5.761719 7.003906 6 7.003906L10.398438 7.003906C10.640625 7.003906 10.800781 6.84375 10.761719 6.601562L10.761719 5.761719 17.601562 6.203125C18.480469 6.203125 19.199219 6.921875 19.199219 7.800781 19.199219 8.683594 18.480469 9.402344 17.601562 9.402344L6.199219 9.402344C5.441406 9.402344 4.800781 8.761719 4.800781 8.003906zM4.800781 5.800781"/>
</svg>

<svg xmlns="http://www.w3.org/2000/svg" width="32" height="32" viewBox="0 0 24 24">
    <path d="M22 12.602h-4c-.238 0-.398.16-.398.402 0 .238.16.398.398.398h4c.238 0 .398-.16.398-.398 0-.242-.16-.402-.398-.402zm0 0M22 14.203h-3.2c-.241 0-.402.16-.402.399 0 .242.16.402.403.402H22c.238 0 .398-.16.398-.402 0-.239-.16-.399-.398-.399zm0 0M22 15.8h-2.398c-.243 0-.403.16-.403.403 0 .238.16.399.403.399H22c.238 0 .398-.16.398-.399 0-.242-.16-.402-.398-.402zm0 0"/>
    <path d="M22 1.402l-3.113-.187a.325.325 0 0 0-.086-.012L12 .801 2 .203C1.48.164 1 .363.602.723.199 1.082 0 1.602 0 2.12v3.281a22 22 0 0 0 .078 1.641l1.363 10.16c.118.8.797 1.399 1.598 1.399h1.762v.8H2.398c-.238 0-.398.16-.398.399v1.601c0 .239.16.399.398.399h2.403v1.601c0 .239.16.399.398.399.242 0 .403-.16.403-.399v-1.601h13.597c.242 0 .403-.16.403-.399v-1.601c0-.238-.16-.399-.403-.399h-2.398v-.8h6.8c.239 0 .399-.16.399-.399v-14.8c0-1.04-.879-1.919-2-2zm-3.602.602c-.039.238-.117.48-.32.637-.238.203-.52.28-.797.28l-10.68-.64a1.085 1.085 0 0 1-1-1.062l6.903.414zM5.602 18.602H8.8v.8H5.6zM2.8 21.004v-.8h2v.8zm16 0H5.6v-.8h13.2zM16 19.402H9.602v-.8H16zm7.2-1.64H3.077c-.398 0-.758-.278-.797-.68L.921 6.922a9.14 9.14 0 0 1-.12-1.52v-3.28c0-.321.12-.599.36-.798.198-.203.48-.32.76-.32H2l2.8.168v.07c0 .961.759 1.801 1.759 1.84l10.68.64h.12c.48 0 .922-.199 1.2-.519.351-.316.546-.723.593-1.168l2.809.168c.719.04 1.238.559 1.238 1.2zm0 0"/>
    <path d="M4.398 12.602c-.238 0-.398.16-.398.402v3.2c0 .237.16.398.398.398h3.204c.238 0 .398-.16.398-.399 0-1.8-1.8-3.601-3.602-3.601zm.403 3.199v-2.36c1.078.2 2.16 1.282 2.36 2.36zm0 0M6.2 10.203h11.402A2.407 2.407 0 0 0 20 7.801c0-1.317-1.078-2.399-2.36-2.399l-7.132-.46a.339.339 0 0 0-.11-.02L6 4.64a.306.306 0 0 0-.055.007l-.707-.046c-.316 0-.597.12-.84.32-.277.2-.398.562-.398.879v2.203c0 1.2 1 2.2 2.2 2.2zm3.8-4.48v.48H6.398v-.719zM4.8 5.8a.44.44 0 0 1 .122-.317c.078-.043.117-.082.238-.082l.442.028v1.172c0 .242.16.402.398.402h4.398c.243 0 .403-.16.364-.402v-.84l6.84.441c.878 0 1.597.719 1.597 1.598 0 .883-.719 1.601-1.597 1.601H6.199c-.758 0-1.398-.64-1.398-1.398zm0 0"/>
</svg>
